X:260
T:Bag o' Spuds -- Am
M:4/4
R:Reel
K:Am
||:"Am"A2eA BAeA|ABcd ecdB|"G"G2BG DGBG|GABc "Em"dBcB|
"Am"A2eA BAeA|ABcd "G"ecdB|"F"ABcd efge|"Em"dBGB BAA2:|
|:"Am"a2ea ageg|agbg agef|"G"gedc BGBd|g2ga bgeg|
"Am"a2ea ageg|agbg ageg|"G"d3e g3e|"Em"dBGB BAA2:|
% Written by ABC2Win  Version 2.2 beta 4  on 9/23/2005
